public/icons/social-facebook.svg

<svg width="8" height="14" viewBox="0 0 8 14" fill="none" xmlns="http://www.w3.org/2000/svg">
<path d="M2.28606 4.71504H0.571777V7.00076H2.28606V13.8579H5.14321V7.00076H7.22435L7.42892 4.71504H5.14321V3.76247C5.14321 3.21676 5.25292 3.00076 5.78035 3.00076H7.42892V0.143616H5.25292C3.19806 0.143616 2.28606 1.04819 2.28606 2.78076V4.71504Z" fill="white"/>
</svg>

<svg width="8" height="14" fill="none" xmlns="http://www.w3.org/2000/svg"><path d="M2.286 4.715H.572v2.286h1.714v6.857h2.857V7h2.081l.205-2.286H5.143v-.953c0-.545.11-.761.637-.761H7.43V.144H5.253c-2.055 0-2.967.904-2.967 2.637v1.934Z" fill="#fff"/></svg>
